24x24/apps/atom-rpg.svg

<svg xmlns="http://www.w3.org/2000/svg" width="24" height="24" version="1">
 <g style="opacity:0.2" transform="matrix(0.328125,0,0,0.328125,2,1.5)">
  <g>
   <path d="M 32,0 C 49.7,0 64,14.3 64,32 64,49.7 49.7,64 32,64 14.3,64 0,49.7 0,32 0,14.3 14.3,0 32,0 Z"/>
  </g>
 </g>
 <g style="fill:#725750" transform="matrix(0.328125,0,0,0.328125,2,1)">
  <g style="fill:#725750">
   <path style="fill:#725750" d="M 32,0 C 49.7,0 64,14.3 64,32 64,49.7 49.7,64 32,64 14.3,64 0,49.7 0,32 0,14.3 14.3,0 32,0 Z"/>
  </g>
 </g>
 <path style="opacity:0.2" d="M 16.517578,4.5 C 14.039374,4.561665 11.676251,6.5901855 9.9707031,7.9609375 9.3591041,8.452481 8.4592481,9.44275 8.5019531,9.484375 8.5446631,9.525996 9.4503749,8.7970694 9.8964844,8.4433594 11.930834,6.8303729 14.266034,5.9894375 15.851562,5.9921875 c 0.591451,0.00105 1.390811,0.3425551 1.757813,0.7519531 0.419494,0.467954 0.556426,0.7588301 0.566406,1.8222656 0.0056,0.5960196 -0.198565,1.4747708 -0.126953,1.4316407 0.17548,-0.105688 0.853978,-2.0734999 0.935547,-2.8339844 C 19.107695,6.014258 18.512839,4.828271 17.585938,4.6015625 17.228755,4.5225155 16.871608,4.4911908 16.517578,4.5 Z m -8.3339842,1 C 7.7133986,5.49478 7.338571,5.572642 7.0390625,5.7421875 4.0927551,7.6940725 8.187369,13.148548 9.84375,14.832031 10.264278,15.251891 11.13016,16 11.181641,16 11.233116,16 10.341553,14.984577 9.7890625,14.238281 7.3328565,10.920485 6.7632131,7.9142906 8.3535156,6.6738281 8.6974236,6.4055756 9.0355559,6.0888129 9.8808594,6.1933594 L 11.5,6.5527344 C 10.51153,5.9249164 9.4329636,5.529669 8.1835938,5.5 Z M 14.818359,8 c -0.05148,0 0.840087,1.0154223 1.392579,1.7617188 2.456206,3.3177972 3.025849,6.3239902 1.435546,7.5644532 -0.343908,0.268252 -0.682039,0.585016 -1.527343,0.480469 L 14.5,17.447266 c 0.940423,0.597302 1.988703,1.000413 3.179688,1.048828 0.535415,0.02296 0.95297,-0.05245 1.28125,-0.238282 C 21.907245,16.305928 17.814583,10.851454 16.158203,9.1679688 15.737675,8.7481082 14.869839,8 14.818359,8 Z M 12.5,10.5 A 1.5,1.5 0 0 0 11,12 1.5,1.5 0 0 0 12.5,13.5 1.5,1.5 0 0 0 14,12 1.5,1.5 0 0 0 12.5,10.5 Z m -5.5488281,3.501953 c -0.1754795,0.105688 -0.8539779,2.073499 -0.9355469,2.833985 -0.1233205,1.149805 0.471535,2.335791 1.3984375,2.5625 2.8574535,0.632379 5.6660365,-1.792801 7.6152345,-3.359376 0.611599,-0.491543 1.511454,-1.479859 1.46875,-1.521484 -0.04271,-0.04162 -0.948422,0.685353 -1.394531,1.039063 -2.034349,1.612986 -4.36955,2.453921 -5.9550785,2.451171 -0.591451,-0.001 -1.390811,-0.342555 -1.7578125,-0.751953 -0.4194945,-0.467954 -0.5564268,-0.758829 -0.5664062,-1.822265 -0.0056,-0.59602 0.1985656,-1.474771 0.1269531,-1.431641 z"/>
 <path style="fill:#f4f4f7" d="M 16.517578 4 C 14.039374 4.061665 11.676251 6.0901855 9.9707031 7.4609375 C 9.3591041 7.952481 8.4592481 8.94275 8.5019531 8.984375 C 8.5446631 9.025996 9.4503749 8.2970694 9.8964844 7.9433594 C 11.930834 6.3303729 14.266034 5.4894375 15.851562 5.4921875 C 16.443013 5.4932375 17.242373 5.8347426 17.609375 6.2441406 C 18.028869 6.7120946 18.165801 7.0029707 18.175781 8.0664062 C 18.181381 8.6624258 17.977216 9.5411769 18.048828 9.4980469 C 18.224308 9.3923589 18.902806 7.424547 18.984375 6.6640625 C 19.107695 5.514258 18.512839 4.328271 17.585938 4.1015625 C 17.228755 4.0225155 16.871608 3.9911908 16.517578 4 z M 8.1835938 5 C 7.7133986 4.99478 7.338571 5.072642 7.0390625 5.2421875 C 4.0927551 7.1940725 8.187369 12.648548 9.84375 14.332031 C 10.264278 14.751891 11.13016 15.5 11.181641 15.5 C 11.233116 15.5 10.341553 14.484577 9.7890625 13.738281 C 7.3328565 10.420485 6.7632131 7.4142906 8.3535156 6.1738281 C 8.6974236 5.9055756 9.0355559 5.5888129 9.8808594 5.6933594 L 11.5 6.0527344 C 10.51153 5.4249164 9.4329636 5.029669 8.1835938 5 z M 14.818359 7.5 C 14.766879 7.5 15.658446 8.5154223 16.210938 9.2617188 C 18.667144 12.579516 19.236787 15.585709 17.646484 16.826172 C 17.302576 17.094424 16.964445 17.411188 16.119141 17.306641 L 14.5 16.947266 C 15.440423 17.544568 16.488703 17.947679 17.679688 17.996094 C 18.215103 18.019054 18.632658 17.943645 18.960938 17.757812 C 21.907245 15.805928 17.814583 10.351454 16.158203 8.6679688 C 15.737675 8.2481082 14.869839 7.5 14.818359 7.5 z M 12.5 10 A 1.5 1.5 0 0 0 11 11.5 A 1.5 1.5 0 0 0 12.5 13 A 1.5 1.5 0 0 0 14 11.5 A 1.5 1.5 0 0 0 12.5 10 z M 6.9511719 13.501953 C 6.7756924 13.607641 6.097194 15.575452 6.015625 16.335938 C 5.8923045 17.485743 6.48716 18.671729 7.4140625 18.898438 C 10.271516 19.530817 13.080099 17.105637 15.029297 15.539062 C 15.640896 15.047519 16.540751 14.059203 16.498047 14.017578 C 16.455337 13.975958 15.549625 14.702931 15.103516 15.056641 C 13.069167 16.669627 10.733966 17.510562 9.1484375 17.507812 C 8.5569865 17.506812 7.7576265 17.165257 7.390625 16.755859 C 6.9711305 16.287905 6.8341982 15.99703 6.8242188 14.933594 C 6.8186187 14.337574 7.0227844 13.458823 6.9511719 13.501953 z"/>
 <g style="fill:#f4f4f7;opacity:0.1" transform="matrix(0.328125,0,0,0.328125,2,1)">
  <g style="fill:#f4f4f7">
   <path style="fill:#f4f4f7" transform="matrix(3.047619,0,0,3.047619,-6.0952381,-3.047619)" d="M 12.5 1 C 6.6921875 1 2 5.6921875 2 11.5 C 2 11.584493 2.0116967 11.66599 2.0136719 11.75 C 2.1474659 6.0594155 6.776681 1.5 12.5 1.5 C 18.223319 1.5 22.852534 6.0594155 22.986328 11.75 C 22.988303 11.66599 23 11.584493 23 11.5 C 23 5.6921875 18.307813 1 12.5 1 z"/>
  </g>
 </g>
</svg>

<svg xmlns="http://www.w3.org/2000/svg" width="24" height="24" version="1"><path d="M32 0c17.7 0 32 14.3 32 32S49.7 64 32 64 0 49.7 0 32 14.3 0 32 0z" transform="matrix(.32813 0 0 .32813 2 1.5)" style="opacity:.2"/><path style="fill:#725750" d="M32 0c17.7 0 32 14.3 32 32S49.7 64 32 64 0 49.7 0 32 14.3 0 32 0z" transform="matrix(.32813 0 0 .32813 2 1)"/><path style="opacity:.2" d="M16.518 4.5c-2.479.062-4.842 2.09-6.547 3.46-.612.492-1.512 1.483-1.469 1.524.043.042.948-.687 1.394-1.04 2.035-1.614 4.37-2.455 5.956-2.452.591.001 1.39.343 1.757.752.42.468.557.759.567 1.822.005.596-.199 1.475-.127 1.432.175-.106.854-2.073.935-2.834.124-1.15-.471-2.336-1.398-2.562a4.42 4.42 0 0 0-1.068-.102zm-8.334 1c-.47-.005-.845.073-1.145.242-2.946 1.952 1.148 7.407 2.805 9.09.42.42 1.286 1.168 1.338 1.168.051 0-.84-1.015-1.393-1.762-2.456-3.318-3.026-6.324-1.435-7.564.343-.268.682-.585 1.527-.48l1.619.359C10.512 5.925 9.433 5.53 8.184 5.5zM14.818 8c-.051 0 .84 1.015 1.393 1.762 2.456 3.318 3.026 6.324 1.435 7.564-.343.268-.682.585-1.527.48l-1.619-.359c.94.598 1.989 1 3.18 1.05.535.022.953-.053 1.28-.24 2.947-1.951-1.145-7.406-2.802-9.089C15.738 8.748 14.87 8 14.818 8zM12.5 10.5A1.5 1.5 0 0 0 11 12a1.5 1.5 0 0 0 1.5 1.5A1.5 1.5 0 0 0 14 12a1.5 1.5 0 0 0-1.5-1.5zm-5.549 3.502c-.175.106-.854 2.073-.935 2.834-.124 1.15.471 2.336 1.398 2.562 2.858.633 5.666-1.792 7.615-3.359.612-.491 1.512-1.48 1.469-1.521-.043-.042-.948.685-1.394 1.039-2.035 1.613-4.37 2.454-5.956 2.45-.591 0-1.39-.342-1.757-.751-.42-.468-.557-.759-.567-1.822-.005-.596.199-1.475.127-1.432z"/><path style="fill:#f4f4f7" d="M16.518 4c-2.479.062-4.842 2.09-6.547 3.46-.612.492-1.512 1.483-1.469 1.524.043.042.948-.687 1.394-1.04 2.035-1.614 4.37-2.455 5.956-2.452.591.001 1.39.343 1.757.752.42.468.557.759.567 1.822.005.596-.199 1.475-.127 1.432.175-.106.854-2.073.935-2.834.124-1.15-.471-2.336-1.398-2.562A4.42 4.42 0 0 0 16.518 4zM8.184 5c-.47-.005-.845.073-1.145.242-2.946 1.952 1.148 7.407 2.805 9.09.42.42 1.286 1.168 1.338 1.168.051 0-.84-1.015-1.393-1.762-2.456-3.318-3.026-6.324-1.435-7.564.343-.268.682-.585 1.527-.48l1.619.359C10.512 5.425 9.433 5.03 8.184 5zm6.634 2.5c-.051 0 .84 1.015 1.393 1.762 2.456 3.318 3.026 6.324 1.435 7.564-.343.268-.682.585-1.527.48l-1.619-.359c.94.598 1.989 1 3.18 1.05.535.022.953-.053 1.28-.24 2.947-1.951-1.145-7.406-2.802-9.089-.42-.42-1.288-1.168-1.34-1.168zM12.5 10a1.5 1.5 0 0 0-1.5 1.5 1.5 1.5 0 0 0 1.5 1.5 1.5 1.5 0 0 0 1.5-1.5 1.5 1.5 0 0 0-1.5-1.5zm-5.549 3.502c-.175.106-.854 2.073-.935 2.834-.124 1.15.471 2.336 1.398 2.562 2.858.633 5.666-1.792 7.615-3.359.612-.491 1.512-1.48 1.469-1.521-.043-.042-.948.685-1.394 1.039-2.035 1.613-4.37 2.454-5.956 2.45-.591 0-1.39-.342-1.757-.751-.42-.468-.557-.759-.567-1.822-.005-.596.199-1.475.127-1.432z"/><g style="fill:#f4f4f7;opacity:.1"><path style="fill:#f4f4f7" transform="rotate(.01 -.1 1)" d="M12.5 1C6.692 1 2 5.692 2 11.5c0 .084.012.166.014.25C2.147 6.06 6.777 1.5 12.5 1.5c5.723 0 10.353 4.56 10.486 10.25.002-.084.014-.166.014-.25C23 5.692 18.308 1 12.5 1z"/></g></svg>
